X:761
T:Halling efter Casper på Vallen
R:Halling
Z:C-G Magnusson, 2008-11-21
O:Ransäter, Värmland
S:Efter Lars Caspersson, Ransäter
B:Svenska Låtar Värmland nr 145
D:Folkmusik från Värmland (1974). Spår 11.
M:2/4
L:1/16
Q:100
K:D
Adfa g2(fe) | Adfa ^g2a2 | Adfa g2(fe) | (Ad)fd e4 :|
L:1/8
|: dd Bc/d/ | e2 c2 | dd Bc/d/ | e2 c2 | A/c/e/f/ gf/e/ | d3 z :|
(:musicend:)

(:music:)
